X:56
T: VOR DER THUERE MEINER LIEBEN
N: B0540
O: Europa, Mitteleuropa, Deutschland
R: Wander -, Heimat - Lied
M: 3/4
L: 1/16
K: Bb
F3F | B4F4B3c | d4B4
A2G2 | F3DG6E2 | D8z4 |
D3D=E2^F2G2A2 | c4B4
A2G2 | G3Fd6c2 | B4z4

@@@ Tune index: 2274
